!!!!SEGMENT: pl-cz--iii-589--004_rygall-ignacy--gentes-laudate-mariam-coro-audi-te-petentes.krn
!!!cenid: 17xx:1105
!!!COM: Rygall, Ignacy
!!!COM-rismid: pe30110281
!!!CDT: <1750->1799
!!!CNT:
!!!OPR: Gentes laudate Mariam
!!!OTL: Coro - Audi te petentes
!!!OMV: 004
!!!PDT:
!!!AGN:
!!!SMS-siglum: PL-CZ
!!!SMS-shelfmark: III-589
!!!SMS-shelfwork: 001-004 M
!!!SMS-variant:
!!!SMS-altvar:
!!!NIFC-rismid: 300001124
!!!URL-scan: http://repozytorium.nifc.pl/skany/pl-cz-nut--iii-589
!!!ONB-nifc: UWAGA: części Gentes laudate Mariam: Euntre (+ Gentes laudate Mariam (Basso solo)),
!!!key: D
**kern	**kern	**kern	**dynam	**kern	**dynam	**kern	**text	**kern	**text	**kern	**text
*	*group2	*group2	*	*group2	*	*group1	*	*group1	*	*group1	*
*part7	*part6	*part5	*part5	*part4	*part4	*part3	*part3	*part2	*part2	*part1	*part1
*staff7	*staff6	*staff5	*	*staff4	*	*staff3	*staff3	*staff2	*staff2	*staff1	*staff1
*I"Clavi Cembalo	*I"Viola	*I"Violino Secondo	*	*I"Violino Primo	*	*I"Baſso Voce	*	*I"Canto 2do	*	*I"Canto 1mo	*
*I'cemb	*I'vla	*I'vl 2	*	*I'vl 1	*	*I'B	*	*I'S 2	*	*I'S 1	*
*Icemba	*Iviola	*Ivioln	*	*Ivioln	*	*Ibass	*	*Isoprn	*	*Isoprn	*
*ICklav	*ICstr	*ICstr	*	*ICstr	*	*ICvox	*	*ICvox	*	*ICvox	*
*clefF4	*clefC3	*clefG2	*	*clefG2	*	*clefF4	*	*clefC1	*	*clefC1	*
*k[f#c#]	*k[f#c#]	*k[f#c#]	*	*k[f#c#]	*	*k[f#c#]	*	*k[c#f#]	*	*k[c#f#]	*
*D:	*D:	*D:	*	*D:	*	*D:	*	*D:	*	*D:	*
*M4/4	*M4/4	*M4/4	*	*M4/4	*	*M4/4	*	*M4/4	*	*M4/4	*
*met(c)	*met(c)	*met(c)	*	*met(c)	*	*met(c)	*	*met(c)	*	*met(c)	*
=1	=1	=1	=1	=1	=1	=1	=1	=1	=1	=1	=1
!	!	!	!	!	!	!	!	!LO:TX:t=P:problem:znaki cc# f#	!	!LO:TX:t=P:problem:znaki cc# f#	!
!LO:TX:a:rj:t=allegro molto	!LO:TX:a:rj:t=allegro molto	!LO:TX:a:rj:t=allo molto	!	!LO:TX:a:rj:t=Allo molto	!	!LO:TX:a:rj:t=allo molto	!	!LO:TX:a:rj:t=allo molto	!	!	!
4d\	4dd\	4ff# 4a\	.	4ddd\	.	4d\	Au-	4dd\	Au-	4ff#\	Au-
4c#\	4cc#\	4ff# 4a\	.	4ddd\	.	4c#\	-di	4dd\	-di	4ff#\	-di
4B\	4b\	4ff# 4a\	.	4ddd\	.	4B\	Te	4dd\	te	4ff#\	Te
4F#\	4f#\	4ff# 4a\	.	4ddd\	.	4F#\	pe-	4dd\	pe-	4ff#\	pe-
=2	=2	=2	=2	=2	=2	=2	=2	=2	=2	=2	=2
4G\	4g\	4g/	.	4ee\	.	(4G\	-ten-	4g\	-ten-	4ee\	-ten-
4A\	4a\	4e/	.	4cc#\	.	4A\)	.	4e\	.	4cc#\	.
4B\	4b\	4f#/	.	4dd\	.	4B\	-tes,	4f#\	-tes	4dd\	-tes
4F#\	4f#\	4a/	.	4ff#\	.	4F#\	pe-	4a\	pe-	4ff#\	pe-
=3	=3	=3	=3	=3	=3	=3	=3	=3	=3	=3	=3
4G\	4g\	4g/	.	4ee\	.	(4G\	-ten-	4g\	-ten-	4ee\	-ten-
4A\	4a\	4e/	.	4cc#\	.	4A\)	.	4e\	.	4cc#\	.
8D\L	8d\L	8f#/L	.	8dd\L	.	4D\	-tes	4f#\	-tes	4dd\	-tes
16F#\L	16f#\L	8dd/J	.	8ff#\J	.	.	.	.	.	.	.
16A\JJ	16a\JJ	.	.	.	.	.	.	.	.	.	.
4d\	4dd\	4dd 4f#/	.	4ff# 4a 4d/	.	4r	.	4r	.	4r	.
=4	=4	=4	=4	=4	=4	=4	=4	=4	=4	=4	=4
*	*	*tremolo	*	*tremolo	*	*	*	*	*	*	*
*	*	*2\right	*	*2\right	*	*	*	*	*	*	*
!LO:TX:t=P:problem:mixed beam	!	!	!	!	!	!	!	!	!	!	!
8D/L	4d\	16dd\LL	.	16ff#\LL	.	4d\	tu-	4a\	tu-	4ff#\	tu-
.	.	16dd\	.	16ff#\	.	.	.	.	.	.	.
8d\	.	16dd\	.	16ff#\	.	.	.	.	.	.	.
.	.	16dd\	.	16ff#\	.	.	.	.	.	.	.
8d\	8dd\L	16dd\	.	16ff#\	.	8d\L	-os	8a\L	-os	8ff#\L	-os
.	.	16dd\	.	16ff#\	.	.	.	.	.	.	.
8d\J	8dd\J	16dd\	.	16ff#\	.	8d\J	.	8a\J	.	8ff#\J	.
.	.	16dd\JJ	.	16ff#\JJ	.	.	.	.	.	.	.
*tremolo	*	*	*	*	*	*	*	*	*	*	*
*2\right	*	*	*	*	*	*	*	*	*	*	*
8c#\L	4cc#\	16cc#\LL	.	16ff#\LL	.	4A\	Cli-	4a\	Cli-	4ee\	Cli-
.	.	16cc#\	.	16ff#\	.	.	.	.	.	.	.
8c#\	.	16cc#\	.	16ff#\	.	.	.	.	.	.	.
.	.	16cc#\	.	16ff#\	.	.	.	.	.	.	.
8c#\	8cc#\L	16cc#\	.	16ff#\	.	8A\L	-en-	8a\L	-en-	8ee\L	-en-
.	.	16cc#\	.	16ff#\	.	.	.	.	.	.	.
8c#\J	8cc#\J	16cc#\	.	16ff#\	.	8A\J	-tes,	8a\J	-tes	8ee\J	-tes,
.	.	16cc#\JJ	.	16ff#\JJ	.	.	.	.	.	.	.
*Xtremolo	*	*	*	*	*	*	*	*	*	*	*
=5	=5	=5	=5	=5	=5	=5	=5	=5	=5	=5	=5
8B\L	4e\	16b\LL	.	16dd\LL	.	4B\	au-	4g#X\	Au-	4dd\	au-
.	.	16b\	.	16dd\	.	.	.	.	.	.	.
8B\	.	16b\	.	16dd\	.	.	.	.	.	.	.
.	.	16b\	.	16dd\	.	.	.	.	.	.	.
8E\	8e\L	16b\	.	16dd\	.	4E\	-di	8g#\L	-di	8dd\L	-di
.	.	16b\	.	16dd\	.	.	.	.	.	.	.
8E\J	8e\J	16b\	.	16dd\	.	.	.	8g#\J	.	8dd\J	.
.	.	16b\JJ	.	16dd\JJ	.	.	.	.	.	.	.
4A\	4e\	16a\LL	.	16cc#\LL	.	4A\	tu-	4a\	tu-	4cc#\	tu-
.	.	16a\	.	16cc#\	.	.	.	.	.	.	.
.	.	16a\	.	16cc#\	.	.	.	.	.	.	.
.	.	16a\	.	16cc#\	.	.	.	.	.	.	.
4AA/	4e\	16a\	.	16cc#\	.	4A\	-os,	4a\	-os	4cc#\	-os
.	.	16a\	.	16cc#\	.	.	.	.	.	.	.
.	.	16a\	.	16cc#\	.	.	.	.	.	.	.
.	.	16a\JJ	.	16cc#\JJ	.	.	.	.	.	.	.
!	!	!	!	!	!	!	!	!LO:LB:g=original	!	!LO:LB:g=original	!
=6	=6	=6	=6	=6	=6	=6	=6	=6	=6	=6	=6
8D\L	4dd\	16dd\LL	.	16ff#\LL	.	4d\	au-	4dd\	au-	4ff#\	au-
.	.	16dd\	.	16ff#\	.	.	.	.	.	.	.
8d\	.	16dd\	.	16ff#\	.	.	.	.	.	.	.
.	.	16dd\	.	16ff#\	.	.	.	.	.	.	.
8d\	8dd\L	16dd\	.	16ff#\	.	8d\L	-di	8dd\L	-di	8ff#\L	-di
.	.	16dd\	.	16ff#\	.	.	.	.	.	.	.
8d\J	8dd\J	16dd\	.	16ff#\	.	8d\J	.	8dd\J	.	8ff#\J	.
.	.	16dd\JJ	.	16ff#\JJ	.	.	.	.	.	.	.
*tremolo	*	*	*	*	*	*	*	*	*	*	*
!LO:TX:a:t=cis	!	!	!	!	!	!	!	!	!	!	!
8c#\L	4cc#\	16cc#\LL	.	16ff#\LL	.	4A\	pe-	4a\	pe-	4ee\	pe-
.	.	16cc#\	.	16ff#\	.	.	.	.	.	.	.
8c#\	.	16cc#\	.	16ff#\	.	.	.	.	.	.	.
.	.	16cc#\	.	16ff#\	.	.	.	.	.	.	.
8c#\	8cc#\L	16cc#\	.	16ff#\	.	8A\L	-ten-	8a\L	-ten-	8ee\L	-ten-
.	.	16cc#\	.	16ff#\	.	.	.	.	.	.	.
8c#\J	8cc#\J	16cc#\	.	16ff#\	.	8A\J	-tes	8cc#\J	-tes,	8ee\J	-tes
.	.	16cc#\JJ	.	16ff#\JJ	.	.	.	.	.	.	.
*Xtremolo	*	*	*	*	*	*	*	*	*	*	*
!LO:LB:g=original	!LO:LB:g=original	!	!	!	!	!LO:LB:g=original	!	!	!	!	!
=7	=7	=7	=7	=7	=7	=7	=7	=7	=7	=7	=7
8B\L	4e\	16b\LL	.	16dd\LL	.	4B\	te	4b\	te	4dd\	te
.	.	16b\	.	16dd\	.	.	.	.	.	.	.
8B\	.	16b\	.	16dd\	.	.	.	.	.	.	.
.	.	16b\	.	16dd\	.	.	.	.	.	.	.
8E\	8e\L	16b\	.	16dd\	.	4E\	vo-	8b\L	vo-	8dd\L	vo-
.	.	16b\	.	16dd\	.	.	.	.	.	.	.
8E\J	8e\J	16b\	.	16dd\	.	.	.	8b\J	.	8dd\J	.
.	.	16b\JJ	.	16dd\JJ	.	.	.	.	.	.	.
4A\	4e\	16a\LL	.	16cc#\LL	.	4A\	-can-	4a\	-can-	4cc#\	-can-
.	.	16a\	.	16cc#\	.	.	.	.	.	.	.
.	.	16a\	.	16cc#\	.	.	.	.	.	.	.
.	.	16a\	.	16cc#\	.	.	.	.	.	.	.
4AA/	4e\	16a\	.	16cc#\	.	4A\	-tes	4a\	-tes	4cc#\	-tes
.	.	16a\	.	16cc#\	.	.	.	.	.	.	.
.	.	16a\	.	16cc#\	.	.	.	.	.	.	.
.	.	16a\JJ	.	16cc#\JJ	.	.	.	.	.	.	.
*	*	*Xtremolo	*	*Xtremolo	*	*	*	*	*	*	*
!	!	!	!	!LO:LB:g=original	!	!	!	!	!	!	!
=8	=8	=8	=8	=8	=8	=8	=8	=8	=8	=8	=8
4D\	4d\	4f#/	.	4b\	.	4D\	au-	4f#/	au-	4b\	au-
4D#X\	8d\L	8f#/L	.	8b\L	.	8D\L	-di	8f#/L	-di	8b\L	-di
.	8d#X\J	8f#/J	.	8a\J	.	8D#X\J	pe-	8f#/J	pe-	8a\J	pe-
4E\	4e\	4B/	.	4g#X\	.	4E\	-ten-	4e/	-ten-	4g#X\	-ten-
4EE/	4e\	4B/	.	4g#\	.	4E,\	-tes,	4e/	-tes,	4g#\	-tes
!	!	!LO:LB:g=original	!	!	!	!	!	!	!	!	!
=9	=9	=9	=9	=9	=9	=9	=9	=9	=9	=9	=9
4E\	4G#X/	4g#X/	.	4ee\	.	4E\	au-	4a\	au-	4ee\	au-
4G#X\	4B/	8cc#\L	.	8ee\L	.	4G#X\	-di	8cc#\L	-di	8ee\L	-di
.	.	8b\J	.	8dd\J	.	.	.	8b\J	.	8dd\J	.
4B\	4A/	8a\L	.	8cc#\L	.	8A\L	au-	8c#/L	au-	8cc#\L	au-
.	.	8cc#\	.	8aa\	.	8A\	-di	8a/	-di	8ee\J	-di
4D\	4A/	8dd\	.	8ff#\	.	8F#\	in-	8f#/	in-	8dd\L	in-
.	.	8b\J	.	8dd\J	.	8D\J	-vo-	8d/J	-vo-	8b\J	-vo-
=10	=10	=10	=10	=10	=10	=10	=10	=10	=10	=10	=10
4E\	4E/	16a\LL	.	16cc#\LL	.	4E\	-can-	4c#/	-can-	4a\	-can-
.	.	16a\	.	16cc#\	.	.	.	.	.	.	.
.	.	16a\	.	16cc#\	.	.	.	.	.	.	.
.	.	16a\JJ	.	16cc#\JJ	.	.	.	.	.	.	.
4EE/	4E/	16g#X\LL	.	16b\LL	.	4E\	.	4d/	.	4bM\	.
.	.	16g#\	.	16b\	.	.	.	.	.	.	.
.	.	16g#\	.	16b\	.	.	.	.	.	.	.
.	.	16g#\JJ	.	16b\JJ	.	.	.	.	.	.	.
!	!	!	!	!	!	!	!	!LO:TX:a:i:t=Solo	!	!LO:TX:a:i:t=Solo	!
4AA/	4A/	4a\	.	4a\	.	4AA/	-tes	4c#/	-tes,	4a\	-tes
*	*	*	*	*	*below	*	*	*	*	*	*
4r	4r	8cc#\L	p	8ee\L|	p	4r	.	8cc#\L	au-	8ee\L	au-
.	.	8cc#\J	.	8ee\J|	.	.	.	8cc#\J	-di	8ee\J	-di
=11	=11	=11	=11	=11	=11	=11	=11	=11	=11	=11	=11
2r	2r	8cc#\L	.	(8ee\L	.	2r	.	8cc#\L	in-	8ee\L	in-
.	.	8a\	.	8cc#\)	.	.	.	8a\	-vo-	8cc#\	-vo-
.	.	8cc#\	.	(8ee\	.	.	.	8cc#\	-can-	8ee\	-can-
.	.	8a\J	.	8cc#\J)	.	.	.	8a\J	-teſ	8cc#\J	-tes
!	!	!	!	!	!LO:DY:t=for	!	!	!	!	!	!
4E\	4e\	4b\	f	4dd\	f	4E\	te	4b,\	te,	4dd\	te,
*	*	*	*	*	*	*	*	*	*ij	*	*
4r	4r	8b\L	p	8dd\L|	p	4r	.	8b\L	au-	8dd\L	au-
.	.	8b\J	.	8dd\J|	.	.	.	8b\J	-di	8dd\J	-di
!	!	!	!	!	!	!	!	!	!	!LO:LB:g=original	!
=12	=12	=12	=12	=12	=12	=12	=12	=12	=12	=12	=12
2r	2r	8b\L	.	(8dd\L	.	2r	.	8b\L	in-	8dd\L	in-
.	.	8g#X\	.	8b\)	.	.	.	8g#X\	-vo-	8b\	-vo-
.	.	8b\	.	(8dd\	.	.	.	8b\	-can-	8dd\	-can-
.	.	8g#\J	.	8b\J)	.	.	.	8g#\J	-tes	8b\J	-tes
!	!	!	!	!	!LO:DY:t=for	!	!	!LO:LB:g=original	!	!	!
4AA/	4A/	4a\	f	4cc#\	f	4A\	te	4a\	te,	4cc#,\	te,
4r	4r	8cc#\L	p	8ee\L	p	4r	.	8cc#\L	au-	8ee\L	au-
.	.	8cc#\J	.	8ee\J	.	.	.	8cc#\J	-di	8ee\J	-di
=13	=13	=13	=13	=13	=13	=13	=13	=13	=13	=13	=13
2r	2r	8cc#\L	.	(8ee\L	.	2r	.	8cc#\L	in-	8ee\L	in-
.	.	8a\	.	8cc#\)	.	.	.	8a\	-vo-	8cc#\	-vo-
.	.	8cc#\	.	(8ee\	.	.	.	8cc#\	-can-	8ee\	-can-
.	.	8a\J	.	8cc#\J)	.	.	.	8a\J	-tes	8cc#\J	-tes-
4E\	4e\	4b\	f	4dd\	f	4E\	te	4b\	te,	4dd\	-te,
4r	4r	8b\L	.	8dd\L|	p	4r	.	8b\L	au-	8dd\L	au-
.	.	8b\J	.	8dd\J|	.	.	.	8b\J	-di	8dd\J	-di
!	!	!	!	!	!	!LO:LB:g=original	!	!	!	!	!
=14	=14	=14	=14	=14	=14	=14	=14	=14	=14	=14	=14
2r	2r	8b\L	.	(8dd\L	.	2r	.	8b\L	in-	8dd\L	in-
.	.	8g#X\	.	8b\)	.	.	.	8g#X\	-vo-	8b\	-vo-
.	.	8b\	.	(8dd\	.	.	.	8b\	-can-	8dd\	-can-
.	.	8g#\J	.	8b\J)	.	.	.	8g#\J	-tes	8b\J	-tes-
4AA/	4A/	4a\	.	4cc#\	.	4A\	te,	4a\	te	4cc#\	-te,
*	*	*	*	*	*	*	*	*	*Xij	*	*
8C#\L	8c#/L	8e/L	.	8a\L	.	8C#\L	in	8e/L	in	8a\L	in
8C#\J	8c#/J	8e/J	.	8a\J	.	8C#\J	a-	8e/J	a-	8a\J	a-
!	!	!	!	!LO:LB:g=original	!	!	!	!	!	!	!
=15	=15	=15	=15	=15	=15	=15	=15	=15	=15	=15	=15
8D\L	8d\L	8f#/L	.	8b\L	.	8D\L	-go-	8f#/L	-go-	8b\L	-go-
8D\	8d\	8f#/	.	8b\	.	8D\	-ne	8f#/J	-ne	8b\	-ne
8E\	8e\	8g#X/	.	8cc#\	.	8E\	mor-	8g#X/L	mor-	8cc#\	mor-
8E\J	8e\J	8g#/J	.	8cc#\J	.	8E\J	.	8g#/J	.	8cc#\J	.
!	!	!LO:LB:g=original	!	!	!	!	!	!	!	!	!
4F#\	4f#\	4a/	.	4dd\	.	4F#\	-tis.	4a/	-tis	4dd\	-tis
*	*	*	*	*	*	*	*ij	*	*ij	*	*ij
8C#\L	8c#\L	8e/L	.	8a\L	.	8C#\L	in	8e/L	in	8a\L	in
8C#\J	8c#\J	8e/J	.	8a\J	.	8C#\J	a-	8e/J	a-	8a\J	a-
!LO:LB:g=original	!LO:LB:g=original	!	!	!	!	!	!	!	!	!	!
=16	=16	=16	=16	=16	=16	=16	=16	=16	=16	=16	=16
8D\L	8d\L	8f#/L	.	8b\L	.	8D\L	-go-	8f#/L	-go-	8b\L	-go-
8D\	8d\	8f#/	.	8b\	.	8D\	-ne	8f#/	-ne	8b\	-ne
8E\	8e\	8g#X/	.	8cc#\	.	8E\	mor-	8g#X/	mor-	8cc#\	mor-
8E\J	8e\J	8g#/J	.	8cc#\J	.	8E\J	.	8g#/J	.	8cc#\J	.
4F#\	4f#\	4a/	.	4dd\	.	4F#,\	-tis,	4a/	-tis	4dd\	-tis
8C#\L	8c#\L	8e/L	.	8a\L	.	8C#\L	in	8e/L	in	8a\L	in
8C#\J	8c#\J	8e/J	.	8a\J	.	8C#\J	a-	8e/J	a-	8a\J	a-
=17	=17	=17	=17	=17	=17	=17	=17	=17	=17	=17	=17
8D\L	8d\L	8f#/L	.	8b\L	.	8D\L	-go-	8f#/L	-go-	8b\L	-go-
8D\	8d\	8f#/	.	8b\	.	8D\	-ne	8f#/	-ne	8b\J	-ne
8E\	8e\	8g#X/	.	8cc#\	.	8E\	mor-	8g#X/	mor-	8cc#\L	mor-
8E\J	8e\J	8g#/J	.	8cc#\J	.	8E\J	.	8g#/J	.	8cc#\J	.
!	!	!	!	!	!	!	!	!	!	!LO:LB:g=original	!
4F#\	4f#\	4f#/	.	8dd\L	.	4F#,\	-tis,	8b\L	-tis	8dd\L	-tis
*	*	*	*	*	*	*	*Xij	*	*Xij	*	*Xij
.	.	.	.	16cc#\L	.	.	.	16a\L	.	16cc#\L	.
.	.	.	.	16dd\JJ	.	.	.	16b\JJ	.	16dd\JJ	.
4G#X\	4B\	4g#X/	.	8ee\L	.	4G#X\	Pa-	8cc#\L	Pa-	8ee\L	Pa-
.	.	.	.	8dd\J	.	.	.	8b\J	.	8dd\J	.
!	!	!	!	!	!	!	!	!LO:LB:g=original	!	!	!
=18	=18	=18	=18	=18	=18	=18	=18	=18	=18	=18	=18
*	*	*tremolo	*	*	*	*	*	*	*	*	*
8A\L	8a\L	16e/LL	.	8cc#\L|	.	8A\L	-tro-	4e/	-tro-	8cc#\L	-tro-
.	.	16e/	.	.	.	.	.	.	.	.	.
8c#\	8cc#\	16e/	.	8ee\J|	.	8c#\J	.	.	.	8ee\J	.
.	.	16e/	.	.	.	.	.	.	.	.	.
8G#X\	8g#X\	16e/	.	8ee\L	.	8G#X\L	-na	4e/	.	8ee\L	-na
.	.	16e/	.	.	.	.	.	.	.	.	.
8E\J	8e\J	16e/	.	8dd\J	.	8E\J	.	.	.	8dd\J	.
.	.	16e/JJ	.	.	.	.	.	.	.	.	.
8A\L	8a\L	16e/LL	.	8cc#\L	.	8A\L	a-	4e/	.	8cc#\L	a
.	.	16e/	.	.	.	.	.	.	.	.	.
8c#\	8cc#\	16e/	.	8ee\J	.	8c#\J	.	.	.	8ee\J	.
.	.	16e/	.	.	.	.	.	.	.	.	.
8G#X\	8g#X\	16e/	.	8ee\L	.	8G#X\L	-des-	4e/	-na	8ee\L	des-
.	.	16e/	.	.	.	.	.	.	.	.	.
8E\J	8e\J	16e/	.	8dd\J	.	8E\J	-to	.	.	8dd\J	-to
.	.	16e/JJ	.	.	.	.	.	.	.	.	.
=19	=19	=19	=19	=19	=19	=19	=19	=19	=19	=19	=19
*	*	*	*	*	*	*	*	*	*	*	*ij
8A\L	8a\L	16e/LL	.	8cc#\L	.	8A\L	Pa-	4e/	a-	8cc#\L	Pa-
.	.	16e/	.	.	.	.	.	.	.	.	.
8c#\	8cc#\	16e/	.	8ee\J	.	8c#\J	.	.	.	8ee\J	.
.	.	16e/	.	.	.	.	.	.	.	.	.
!	!LO:SIC:v:s=8g#\	!	!	!	!	!	!	!	!	!	!
8G#X\	8g\	16e/	.	8ee\L	.	8G#X\L	-tro-	4e/	-de-	8ee\L	-tro-
.	.	16e/	.	.	.	.	.	.	.	.	.
8E\J	8e\J	16e/	.	8dd\J	.	8E\J	-na	.	.	8dd\J	.
.	.	16e/JJ	.	.	.	.	.	.	.	.	.
8A\L	8a\L	16e/LL	.	8cc#\L	.	8A\L	a-	4e/	.	8cc#\L	-na
.	.	16e/	.	.	.	.	.	.	.	.	.
8c#\	8cc#\	16e/	.	8ee\J	.	8c#\J	.	.	.	8ee\J	a
.	.	16e/	.	.	.	.	.	.	.	.	.
!	!LO:SIC:v:s=8g#\	!	!	!	!	!	!	!	!	!	!
8G#X\	8g\	16e/	.	8ee\L	.	8G#X\L	-des-	4e/	-sto	8ee\L	des-
.	.	16e/	.	.	.	.	.	.	.	.	.
8E\J	8e\J	16e/	.	8dd\J	.	8E\J	-to	.	.	8dd\J	-to
*	*	*	*	*	*	*	*	*	*	*	*Xij
.	.	16e/JJ	.	.	.	.	.	.	.	.	.
!	!	!	!	!	!	!LO:LB:g=original	!	!	!	!	!
=20	=20	=20	=20	=20	=20	=20	=20	=20	=20	=20	=20
*tremolo	*	*	*	*tremolo	*	*	*	*	*	*	*
8A\L	4a\	16a\LL	.	16cc#\LL	.	4A\	a-	4e/	a-	4cc#\	a-
.	.	16a\	.	16cc#\	.	.	.	.	.	.	.
8A\	.	16a\	.	16cc#\	.	.	.	.	.	.	.
.	.	16a\JJ	.	16cc#\JJ	.	.	.	.	.	.	.
8A\	4a\	16cc#\LL	.	16aa\LL	.	4A\	.	4cc#\	.	4aa\	.
.	.	16cc#\	.	16aa\	.	.	.	.	.	.	.
8A\J	.	16cc#\	.	16aa\	.	.	.	.	.	.	.
.	.	16cc#\JJ	.	16aa\JJ	.	.	.	.	.	.	.
8D\L	4f#\	16dd\LL	.	16ff#\LL	.	4D\	.	4dd\	.	4ff#\	.
.	.	16dd\	.	16ff#\	.	.	.	.	.	.	.
8D\	.	16dd\	.	16ff#\	.	.	.	.	.	.	.
.	.	16dd\JJ	.	16ff#\JJ	.	.	.	.	.	.	.
8D\	4f#\	16b\LL	.	16dd\LL	.	4D\	.	4b\	.	4dd\	.
.	.	16b\	.	16dd\	.	.	.	.	.	.	.
8D\J	.	16b\	.	16dd\	.	.	.	.	.	.	.
.	.	16b\JJ	.	16dd\JJ	.	.	.	.	.	.	.
!	!	!	!	!LO:LB:g=original	!	!	!	!	!	!	!
=21	=21	=21	=21	=21	=21	=21	=21	=21	=21	=21	=21
*	*tremolo	*	*	*	*	*	*	*	*	*	*
*	*2\right	*	*	*	*	*2\right	*	*2\right	*	*2\right	*
8E\L	8e\L	16cc# 16e\LL	.	16aa 16cc#\LL	.	2E\	.	2a\	-des-	2cc#\	-de-
.	.	16cc# 16e\	.	16aa 16cc#\	.	.	.	.	.	.	.
8E\	8e\	16cc# 16e\	.	16aa 16cc#\	.	.	.	.	.	.	.
.	.	16cc# 16e\	.	16aa 16cc#\	.	.	.	.	.	.	.
8E\	8e\	16cc# 16e\	.	16aa 16cc#\	.	.	.	.	.	.	.
.	.	16cc# 16e\	.	16aa 16cc#\	.	.	.	.	.	.	.
8E\J	8e\J	16cc# 16e\	.	16aa 16cc#\	.	.	.	.	.	.	.
.	.	16cc# 16e\JJ	.	16aa 16cc#\JJ	.	.	.	.	.	.	.
8EE/L	8E/L	16b 16e\LL	.	16gg#X 16b\LL	.	2E\	-des-	2g#X\	.	2b\	.
.	.	16b 16e\	.	16gg#X 16b\	.	.	.	.	.	.	.
8EE/	8E/	16b 16e\	.	16gg#X 16b\	.	.	.	.	.	.	.
.	.	16b 16e\	.	16gg#X 16b\	.	.	.	.	.	.	.
8EE/	8E/	16b 16e\	.	16gg#X 16b\	.	.	.	.	.	.	.
.	.	16b 16e\	.	16gg#X 16b\	.	.	.	.	.	.	.
8EE/J	8E/J	16b 16e\	.	16gg#X 16b\	.	.	.	.	.	.	.
.	.	16b 16e\JJ	.	16gg#X 16b\JJ	.	.	.	.	.	.	.
*Xtremolo	*Xtremolo	*	*	*Xtremolo	*	*	*	*	*	*	*
=22	=22	=22	=22	=22	=22	=22	=22	=22	=22	=22	=22
8A\L	8a\L	16e/LL	.	8aa|\L	.	8A\L	-to,	4e/	-to	8cc#\L	-sto
.	.	16e/	.	.	.	.	.	.	.	.	.
8c#\	8cc#\	16e/	.	8ee|\J	.	8c#\J	Pa-	.	.	8ee\J	Pa-
.	.	16e/	.	.	.	.	.	.	.	.	.
8G#X\	8g#X\	16e/	.	(8ee\L	.	8G#X\L	-tro-	4e/	Pa-	8ee\L	-tro-
.	.	16e/	.	.	.	.	.	.	.	.	.
8E\J	8e\J	16e/	.	8dd\J)	.	8E\J	.	.	.	8dd\J	.
.	.	16e/JJ	.	.	.	.	.	.	.	.	.
8A\L	8a\L	16e/LL	.	8cc#|\L	.	8A\L	-na	4e/	-tro-	8cc#\L	-na
.	.	16e/	.	.	.	.	.	.	.	.	.
8c#\	8cc#\	16e/	.	8ee|\J	.	8c#\J	a	.	.	8ee\J	a
.	.	16e/	.	.	.	.	.	.	.	.	.
8G#X\	8g#\	16e/	.	(8ee\L	.	8G#X\L	des-	4e/	-na	8ee\L	des-
.	.	16e/	.	.	.	.	.	.	.	.	.
8E\J	8e\J	16e/	.	8dd\J)	.	8E\J	-to	.	.	8dd\J	.
.	.	16e/JJ	.	.	.	.	.	.	.	.	.
!LO:LB:g=original	!	!	!	!	!	!	!	!	!	!LO:LB:g=original	!
=23	=23	=23	=23	=23	=23	=23	=23	=23	=23	=23	=23
*	*	*	*	*	*	*	*ij	*	*	*	*
8A\L	8a\L	16e/LL	.	8cc#|\L	.	8A\L	Pa-	4e/	a-	8cc#\L	-to
.	.	16e/	.	.	.	.	.	.	.	.	.
8c#\	8cc#\	16e/	.	8ee|\J	.	8c#\J	.	.	.	8ee\J	Pa-
.	.	16e/	.	.	.	.	.	.	.	.	.
!	!LO:SIC:v:s=8g#\	!	!	!	!	!	!	!	!	!	!
8G#X\	8g\	16e/	.	(8ee\L	.	8G#X\L	-tro-	4e/	-des-	8ee\L	-tro-
.	.	16e/	.	.	.	.	.	.	.	.	.
8E\J	8e\J	16e/	.	8dd\J)	.	8E\J	-na	.	.	8dd\J	.
.	.	16e/JJ	.	.	.	.	.	.	.	.	.
!	!LO:LB:g=original	!	!	!	!	!	!	!	!	!	!
8A\L	8a\L	16e/LL	.	8cc#|\L	.	8A\L	a	4e/	.	8cc#\L	-na
.	.	16e/	.	.	.	.	.	.	.	.	.
8c#\	8cc#\	16e/	.	8ee|\J	.	8c#\J	des-	.	.	8ee\J	a-
.	.	16e/	.	.	.	.	.	.	.	.	.
8G#X\	8g#X\	16e/	.	(8ee\L	.	8G#X\L	.	4e/	-to	8ee\L	-des-
.	.	16e/	.	.	.	.	.	.	.	.	.
8E\J	8e\J	16e/	.	8dd\J)	.	8E\J	-to	.	.	8dd\J	-to
*	*	*	*	*	*	*	*Xij	*	*	*	*
.	.	16e/JJ	.	.	.	.	.	.	.	.	.
!	!	!LO:LB:g=original	!	!	!	!	!	!	!	!	!
=24	=24	=24	=24	=24	=24	=24	=24	=24	=24	=24	=24
*	*	*	*	*tremolo	*	*	*	*	*	*	*
8A\L	4a\	16a\LL	.	16cc#\LL	.	4A\	a-	4e/	a-	4cc#\	a-
.	.	16a\	.	16cc#\	.	.	.	.	.	.	.
8A\	.	16a\	.	16cc#\	.	.	.	.	.	.	.
.	.	16a\JJ	.	16cc#\JJ	.	.	.	.	.	.	.
8C#\	4a\	16cc#\LL	.	16aa\LL	.	4A\	-des-	4cc#\	-des-	4aa\	-des-
.	.	16cc#\	.	16aa\	.	.	.	.	.	.	.
8C#\J	.	16cc#\	.	16aa\	.	.	.	.	.	.	.
.	.	16cc#\JJ	.	16aa\JJ	.	.	.	.	.	.	.
8D\L	4f#\	16dd\LL	.	16ff#\LL	.	4D\	-to	4dd\	-to	4ff#\	-to
.	.	16dd\	.	16ff#\	.	.	.	.	.	.	.
8D\	.	16dd\	.	16ff#\	.	.	.	.	.	.	.
.	.	16dd\JJ	.	16ff#\JJ	.	.	.	.	.	.	.
8F#\	4f#\	16b\LL	.	16dd\LL	.	4D\	Pa-	4b\	Pa-	4dd\	Pa-
.	.	16b\	.	16dd\	.	.	.	.	.	.	.
8F#\J	.	16b\	.	16dd\	.	.	.	.	.	.	.
.	.	16b\JJ	.	16dd\JJ	.	.	.	.	.	.	.
=25	=25	=25	=25	=25	=25	=25	=25	=25	=25	=25	=25
*tremolo	*tremolo	*	*	*	*	*	*	*	*	*	*
8E\L	8e\L	16cc# 16e\LL	.	16aa 16cc#\LL	.	2E\	-tro-	2a\	-tro-	2cc#\	-tro-
.	.	16cc# 16e\	.	16aa 16cc#\	.	.	.	.	.	.	.
8E\	8e\	16cc# 16e\	.	16aa 16cc#\	.	.	.	.	.	.	.
.	.	16cc# 16e\	.	16aa 16cc#\	.	.	.	.	.	.	.
8E\	8e\	16cc# 16e\	.	16aa 16cc#\	.	.	.	.	.	.	.
.	.	16cc# 16e\	.	16aa 16cc#\	.	.	.	.	.	.	.
8E\J	8e\J	16cc# 16e\	.	16aa 16cc#\	.	.	.	.	.	.	.
.	.	16cc# 16e\JJ	.	16aa 16cc#\JJ	.	.	.	.	.	.	.
8EE/L	8E/L	16b 16e\LL	.	16gg#X 16b\LL	.	2E\	.	2g#X\	.	2bM\	.
.	.	16b 16e\	.	16gg#X 16b\	.	.	.	.	.	.	.
8EE/	8E/	16b 16e\	.	16gg#X 16b\	.	.	.	.	.	.	.
.	.	16b 16e\	.	16gg#X 16b\	.	.	.	.	.	.	.
8EE/	8E/	16b 16e\	.	16gg#X 16b\	.	.	.	.	.	.	.
.	.	16b 16e\	.	16gg#X 16b\	.	.	.	.	.	.	.
8EE/J	8E/J	16b 16e\	.	16gg#X 16b\	.	.	.	.	.	.	.
.	.	16b 16e\JJ	.	16gg#X 16b\JJ	.	.	.	.	.	.	.
*Xtremolo	*Xtremolo	*Xtremolo	*	*Xtremolo	*	*	*	*	*	*	*
=26	=26	=26	=26	=26	=26	=26	=26	=26	=26	=26	=26
4AA/	4A/	4cc#\	.	4aa\	.	4AA/	-na,	4a\	-na	4a\	-na,
8C#/L	4c#/	8e/L	.	8aa\L	.	4C#/	ut	4ee\	ut	4aa\	ut
8C#/J	.	8e/J	.	8aa\J	.	.	.	.	.	.	.
8D\L	4d/	8dd\L	.	8ff#\L	.	4D/	De-	4dd\	De-	4ff#\	De-
8D\	.	8dd\	.	8ff#\J	.	.	.	.	.	.	.
8E\	4e/	8b\	.	8dd\L	.	4E/	-um	4b\	-um	4dd\	-um
8E\J	.	8b\J	.	8dd\J	.	.	.	.	.	.	.
!	!	!	!	!	!	!LO:LB:g=original	!	!LO:LB:g=original	!	!	!
=27	=27	=27	=27	=27	=27	=27	=27	=27	=27	=27	=27
4F#\	4f#\	4a\	.	4cc#\	.	4F#\	u-	4a\	u-	4cc#\	u-
8C#\L	4c#\	8c#/L	.	8e/L	.	8C#\L	-na(m)	8c#/L	-na[m]	8e/L	-na(m)
8C#\J	.	8c#/J	.	8a/J	.	8C#\J	.	8c#/J	.	8a/J	.
8D\L	4d\	8d/L	.	8f#/L	.	8D\L	te-	8d/L	te-	8f#/L	te
8D\	.	8d/J	.	8b/J	.	8D\J	.	8d/J	.	8b/J	.
.	.	.	.	8qqa/	.	.	.	.	.	.	.
8E\	4e\	8B/L	.	8g#X/L	.	8E\L	-cum,	8B/L	-cum	8g#X/L	cum
8E\J	.	8B/J	.	16f#/L	.	8E\J,	.	8B/J	.	16f#/L	.
.	.	.	.	16e/JJ	.	.	.	.	.	16e/JJ	.
!	!	!	!	!LO:B:g=original	!	!	!	!	!	!	!
=28	=28	=28	=28	=28	=28	=28	=28	=28	=28	=28	=28
4AA/	4A/	4c#/	.	4a/	.	4A\	in	4c#/	in	4a\	in
8C#/L	4c#/	8ee\L	.	8aa\L	.	4C#\	coe-	8ee\L	coe-	8aa\L	coe-
8C#/J	.	8ee\J	.	8aa\J	.	.	.	8ee\J	.	8aa\J	.
8D/L	4d/	8dd\L	.	8ff#\L	.	4D\	-lis	8dd\L	-lis	8ff#\L	-lis
8D/	.	8dd\	.	8ff#\	.	.	.	8dd\J	.	8ff#\J	.
8E/	4e/	8b\	.	8dd\	.	4E\	ae-	8b\L	ae-	8dd\L	ae-
8E/J	.	8b\J	.	8dd\J	.	.	.	8b\J	.	8dd\J	.
!	!	!	!	!	!	!	!	!	!	!LO:LB:g=original	!
=29	=29	=29	=29	=29	=29	=29	=29	=29	=29	=29	=29
4F#\	4f#\	4cc#\	.	4cc#\	.	4F#\	-ter-	4a\	-ter-	4cc#\	-ter-
8C#\L	8c#\L	8c#/L	.	8e/L	.	8C#\L	-ne	8c#/L	-ne	8e/L	-ne
8C#\J	8c#\J	8c#/J	.	8a/J	.	8C#\J	.	8c#/J	.	8a/J	.
8D\L	8d\L	8d/L	.	8f#/L	.	8D\L	va-	8d/L	va-	8f#/L	va-
8D\	8d\	8d/	.	8b/J	.	8D\J	-le-	8d/	-le-	8b/J	-le-
.	.	.	.	8qqa/	.	.	.	.	.	8qqa/	.
8E\	8e\	8B/	.	8g#X/L	.	8E\L	-a-	8B/	-a-	8g#X/L	-a-
8E\J	8e\J	8B/J	.	16f#/L	.	8E\J	.	8B/J	.	16f#/L	.
.	.	.	.	16e/JJ	.	.	.	.	.	16e/JJ	.
!LO:LB:g=original	!	!	!	!	!	!	!	!	!	!	!
=30	=30	=30	=30	=30	=30	=30	=30	=30	=30	=30	=30
4AA/	4e\	4c#/	.	4a/	.	4AA/	-mus	4c#/	-mus	4a\	-mus
8E\L	8e\L	8ddL 8e/	.	8gg#XL 8b/	.	8E\L	lau-	8dd\L	.	8ee\	lau-
8E\J	8e\J	8ddJ 8e/	.	8gg#J 8b/	.	8E\J	.	8dd\J	lau-	8ee\	.
4A\	4e\	4cc# 4e/	.	4aa 4cc#\	.	4A\	-da-	4cc#\	-da-	4aa\	-da-
8E\L	8e\L	8bL 8e/	.	8gg#XL 8b\	.	8E\L	.	8b\L	.	8ee\	.
8E\J	8e\J	8bJ 8e/	.	8gg#J 8b\	.	8E\J	.	8b\J	.	8ee\	.
!	!	!LO:LB:g=original	!	!	!	!	!	!	!	!	!
=31	=31	=31	=31	=31	=31	=31	=31	=31	=31	=31	=31
4AA/	4e\	4cc# 4e/	.	4aa\	.	4AA/	-re	4a\	-re	4a\	-re
4r	4r	16a\LL	.	16cc#\LL	.	4r	.	4r	.	4r	.
.	.	16b\	.	16dd\	.	.	.	.	.	.	.
.	.	16cc#\	.	16ee\	.	.	.	.	.	.	.
.	.	16dd\JJ	.	16ff#\JJ	.	.	.	.	.	.	.
4r	4r	8cc#\L	.	8ee\L	.	2r	.	2r	.	2r	.
.	.	8cc#\	.	8aa\	.	.	.	.	.	.	.
4E\	4e\	8dd\	.	8gg#X\	.	.	.	.	.	.	.
.	.	8b\J	.	8bb\J	.	.	.	.	.	.	.
=32	=32	=32	=32	=32	=32	=32	=32	=32	=32	=32	=32
4A\	4e\	4cc#\	.	4aa\	.	00r	.	00r	.	00r	.
4r	4r	16a\LL	.	16cc#\LL	.	.	.	.	.	.	.
.	.	16b\	.	16dd\	.	.	.	.	.	.	.
.	.	16cc#\	.	16ee\	.	.	.	.	.	.	.
.	.	16dd\JJ	.	16ff#\JJ	.	.	.	.	.	.	.
4r	4r	8cc#\L	.	8ee\L	.	.	.	.	.	.	.
.	.	8a\J	.	8cc#\J	.	.	.	.	.	.	.
4E\	4e\	16cc#\LL	.	16ee\LL	.	.	.	.	.	.	.
.	.	16b\	.	16dd\	.	.	.	.	.	.	.
.	.	16a\	.	16cc#\	.	.	.	.	.	.	.
.	.	16g#X\JJ	.	16b\JJ	.	.	.	.	.	.	.
!	!LO:LB:g=original	!	!	!	!	!	!	!	!	!	!
=33	=33	=33	=33	=33	=33	=33	=33	=33	=33	=33	=33
4AA/	4e\	4a\	.	4a\	.	.	.	.	.	.	.
4r	4r	16a\LL	.	16cc#\LL	.	.	.	.	.	.	.
.	.	16b\	.	16dd\	.	.	.	.	.	.	.
.	.	16cc#\	.	16ee\	.	.	.	.	.	.	.
.	.	16dd\JJ	.	16ff#\JJ	.	.	.	.	.	.	.
4r	4r	8cc#\L	.	8ee\L	.	.	.	.	.	.	.
.	.	8cc#\	.	8aa\	.	.	.	.	.	.	.
4E\	4e\	8dd\	.	8gg#X\	.	.	.	.	.	.	.
.	.	8b\J	.	8bb\J	.	.	.	.	.	.	.
!	!	!	!	!LO:B:g=original	!	!	!	!	!	!	!
=34	=34	=34	=34	=34	=34	=34	=34	=34	=34	=34	=34
4A\	4e\	4cc#\	.	4aa\	.	.	.	.	.	.	.
4r	4r	16a\LL	.	16cc#\LL	.	.	.	.	.	.	.
.	.	16b\	.	16dd\	.	.	.	.	.	.	.
.	.	16cc#\	.	16ee\	.	.	.	.	.	.	.
.	.	16dd\JJ	.	16ff#\JJ	.	.	.	.	.	.	.
4r	4r	8cc#\L	.	8ee\L	.	.	.	.	.	.	.
.	.	8a\J	.	8cc#\J	.	.	.	.	.	.	.
4E\	4e\	16cc#\LL	.	16ee\LL	.	.	.	.	.	.	.
.	.	16b\	.	16dd\	.	.	.	.	.	.	.
.	.	16a\	.	16cc#\	.	.	.	.	.	.	.
.	.	16g#X\JJ	.	16b\JJ	.	.	.	.	.	.	.
=35	=35	=35	=35	=35	=35	=35	=35	=35	=35	=35	=35
*	*^	*	*	*	*	*	*	*	*	*	*
*	*tremolo	*tremolo	*	*	*	*	*	*	*	*	*	*
4AA/	8e/L	8c#\L	8cc#\L	.	8aa/L	.	.	.	.	.	.	.
.	8e/	8c#\	16cc#\L	.	16ee/L	.	.	.	.	.	.	.
.	.	.	16cc#\JJ	.	16ee/JJ	.	.	.	.	.	.	.
4A\	8e/	8c#\	8cc#\L	.	8ee/L	.	.	.	.	.	.	.
.	8e/J	8c#\J	16a\L	.	16cc#/L	.	.	.	.	.	.	.
.	.	.	16a\JJ	.	16cc#/JJ	.	.	.	.	.	.	.
4A\	8e/L	8c#\L	8a/L	.	8cc#/L	.	.	.	.	.	.	.
.	8e/	8c#\	16c#/L	.	16a/L	.	.	.	.	.	.	.
.	.	.	16c#/JJ	.	16a/JJ	.	.	.	.	.	.	.
4A\	8e/	8c#\	8c#/L	.	8a/L	.	.	.	.	.	.	.
.	8e/J	8c#\J	16c#/L	.	16e/L	.	.	.	.	.	.	.
.	.	.	16c#/JJ	.	16e/JJ	.	.	.	.	.	.	.
!	!	!	!LO:LB:g=original	!	!	!	!	!	!	!	!	!
=36	=36	=36	=36	=36	=36	=36	=36	=36	=36	=36	=36	=36
*	*	*tremolo	*	*	*	*	*	*	*	*	*	*
!LO:TX:t=P:problem:mixed beam	!	!	!	!	!LO:TX:t=P:problem:mixed beam	!	!	!	!	!	!	!
8A\L	8e/L	8c#\L	8a/L	.	8c#/L	.	1r	.	1r	.	1r	.
8AA/	8e/	8c#\	8cc# 8e/	.	8aa 8cc#\	.	.	.	.	.	.	.
8AA/	8e/	8c#\	8cc# 8e/	.	8aa 8cc#\	.	.	.	.	.	.	.
8AA/J	8e/J	8c#\J	8cc#J 8e/	.	8aaJ 8cc#\	.	.	.	.	.	.	.
*	*Xtremolo	*Xtremolo	*	*	*	*	*	*	*	*	*	*
4AA/	4e/	4c#\	4cc# 4e/	.	4aa 4cc#\	.	.	.	.	.	.	.
4r	4r	4ryy	4r	.	4r	.	.	.	.	.	.	.
*	*v	*v	*	*	*	*	*	*	*	*	*	*
=37	=37	=37	=37	=37	=37	=37	=37	=37	=37	=37	=37
4A\	4a\	4cc# 4e\	.	4aa\	.	4A\	au-	4cc#\	Au-	4aa\	Au-
4G#X\	4g#X\	4cc# 4e\	.	4aa\	.	4G#X\	-di	4cc#\	-di	4aa\	-di
4F#\	4f#\	4cc# 4e\	.	4aa\	.	4F#\	te	4cc#\	Te	4aa\	Te
4C#\	4c#\	4cc# 4e\	.	4aa\	.	4C#\	vo-	4cc#\	vo-	4aa\	vo-
=38	=38	=38	=38	=38	=38	=38	=38	=38	=38	=38	=38
4D\	4d\	4dd\	.	4ff#\	.	4D\	-can-	4dd\	-can-	4ff#\	-can-
4E\	4e\	4b\	.	4dd\	.	4E\	-tes	4b\	-tes	4dd\	-tes
4F#\	4f#\	4a\	.	4cc#\	.	4F#\	Te	4a\	te	4cc#\	te
4C#\	4c#\	4a\	.	4cc#\	.	4C#\	vo-	4a\	vo-	4cc#\	vo-
!LO:LB:g=original	!	!	!	!	!	!LO:LB:g=original	!	!LO:LB:g=original	!	!	!
=39	=39	=39	=39	=39	=39	=39	=39	=39	=39	=39	=39
4D\	4d\	4f#/	.	4b\	.	4D\	-can-	4f#/	-can-	4b\	-can-
4E\	4e\	4d/	.	4g#X\	.	4E\	-tes	4d/	-tes	4g#X\	-tes
8AA\L	4A\	4c#/	.	4a\	.	4AA/	te	4c#/	Te	4a\	Te
16C#\L	.	.	.	.	.	.	.	.	.	.	.
16E\JJ	.	.	.	.	.	.	.	.	.	.	.
4A\	4r	4r	.	4r	.	4r	.	4r	.	4r	.
=40	=40	=40	=40	=40	=40	=40	=40	=40	=40	=40	=40
8D\L	4d\	4ccn\	.	4aa\	.	4F#\	au-	4ccn\	au-	4aa\	au-
8A\	.	.	.	.	.	.	.	.	.	.	.
8F#\	8d\L	8a\L	.	8ccn\L	.	8F#\L	-di	8a\L	-di	8ccn\L	-di
8D\J	8d\J	8a\J	.	8cc\J	.	8F#\J	vo-	8a\J	vo-	8cc\J	vo-
!	!	!	!	!	!	!	!	!	!	!LO:LB:g=original	!
4G\	4d\	8a\L	.	8cc\L	.	8F#\L	-can-	8a\L	-can-	8ccn\L	-can-
.	.	8g\J	.	8b\J	.	8G\J	-tes	8g\J	-tes	8b\J	-tes
4GG/	4d\	4g\	.	4b\	.	4G\	te	4g\	Te	4b\	Te
!	!	!	!	!LO:B:g=original	!	!	!	!	!	!	!
=41	=41	=41	=41	=41	=41	=41	=41	=41	=41	=41	=41
8BB\L	4B/	4a\	.	4ff#\	.	4D#X\	au-	4a\	au-	4ff#\	au-
8F#\	.	.	.	.	.	.	.	.	.	.	.
8D#X\	8B/L	8f#\L	.	8a\L	.	8D#\L	-di	8f#\L	-di	8a\L	-di
8BB\J	8B/J	8f#\J	.	8a\J	.	8D#\J	pe-	8f#\J	pe-	8a\J	pe-
4E\	4B/	8f#\L	.	8a\L	.	8D#\L	-ten-	8f#\L	-ten-	8a\L	-ten-
.	.	8e\J	.	8g\J	.	8E\J	-tes	8e\J	-tes	8g\J	-tes
4EE/	4B/	4e\	.	4g\	.	4E\	te	4e\	Te,	4g\	te,
!	!LO:LB:g=original	!	!	!	!	!	!	!	!	!	!
=42	=42	=42	=42	=42	=42	=42	=42	=42	=42	=42	=42
8AA/L	4A/	4g/	.	4ee\	.	4C#\	au-	4g\	au-	4ee\	au-
8E/	.	.	.	.	.	.	.	.	.	.	.
8C#/	8A/L	8e/L	.	8g/L	.	8C#\L	-di	8e\L	-di	8g\L	-di
8AA/J	8A/J	8e/J	.	8g/J	.	8C#\J	.	8e\J	.	8g\J	.
!	!	!	!	!LO:TX:t=P:problem:mixed beam	!	!	!	!	!	!	!
4D\	4A/	8d/L	.	8f#/L	.	4D\	in-	4d\	in-	8f#\L	in-
.	.	8d/	.	8dd\J	.	.	.	.	.	8dd\J	-vo-
4G\	4B/	8g/	.	8b\L	.	4G\	-vo-	8g\L	-vo-	8b\L	-ca-
.	.	8g/J	.	8ee\J	.	.	.	8g\J	-can-	8ee\J	.
=43	=43	=43	=43	=43	=43	=43	=43	=43	=43	=43	=43
4A\	4A/	4f#/	.	4dd\	.	4A\	-can-	4f#\	-tes	4dd\	-ntes
4AA/	4A/	4e/	.	4cc#\	.	4A\	-tes	4e\	.	4cc#\	.
!	!	!LO:LB:g=original	!	!	!	!	!	!	!	!	!
4D\	4A/	4f#/	p	4dd\	.	4D\	te	4f#,\	Te	4dd\	te
!	!	!	!	!	!	!	!	!LO:TX:b:i:t=Solo	!	!LO:TX:b:i:t=Solo	!
4r	4r	8ff#|\L	.	8aa\L	p	4r	.	8ff#\L	au-	8aa\L	au-
.	.	8ff#|\J	.	8aa\J	.	.	.	8ff#\J	-di	8aa\J	-di
=44	=44	=44	=44	=44	=44	=44	=44	=44	=44	=44	=44
2r	2r	(8ff#\L	.	8aa\L	.	2r	.	8ff#\L	in-	8aa\L	in-
.	.	8dd\)	.	8ff#\	.	.	.	8dd\	-vo-	8ff#\	-vo-
.	.	(8ff#\	.	8aa\	.	.	.	8ff#\	-can-	8aa\	-can-
.	.	8dd\J)	.	8ff#\J	.	.	.	8dd\J	-tes	8ff#\J	-tes
4A\	4A/	4ee|\	f	4gg\	f	4A\	te	4ee\	Te,	4gg\	te.
*	*	*	*	*	*	*	*	*	*ij	*	*ij
4r	4r	8ee\L	p	8gg\L	p	4r	.	8ee\L	au-	8gg\L	au-
.	.	8ee\J	.	8gg\J	.	.	.	8ee\J	-di	8gg\J	-di
=45	=45	=45	=45	=45	=45	=45	=45	=45	=45	=45	=45
2r	2r	(8ee\L	.	8gg\L	.	2r	.	8ee\L	in-	8gg\L	in-
.	.	8cc#\)	.	8ee\	.	.	.	8cc#\	-vo-	8ee\	-vo-
.	.	(8ee\	.	8gg\	.	.	.	8ee\	-can-	8gg\	-can-
.	.	8cc#\J)	.	8ee\J	.	.	.	8cc#\J	-tes	8ee\J	-tes
4D\	4D/	4dd\	f	4ff#\	f	4D\	Te	4dd\	Te	4ff#\	te,
4r	4r	8a/L	p	8ff#\L	p	4r	.	8a\L	au-	8ff#\L	au-
.	.	8a/J	.	8ff#\J	.	.	.	8a\J	-di	8ff#\J	-di
!	!	!	!	!	!	!LO:LB:g=original	!	!LO:LB:g=original	!	!	!
=46	=46	=46	=46	=46	=46	=46	=46	=46	=46	=46	=46
2r	2r	(8a/L	.	8ff#\L	.	2r	.	8a\L	in-	8ff#\L	in-
.	.	8f#/)	.	8dd\	.	.	.	8f#\	-vo-	8dd\	-vo-
.	.	(8a/	.	8ff#\	.	.	.	8a\	-can-	8ff#\	-can-
.	.	8f#/J)	.	8dd\J	.	.	.	8f#\J	-tes	8dd\J	-tes
!	!	!	!	!	!	!	!	!	!	!LO:LB:g=original	!
4AA/	4A/	4g/	f	4ee\	f	4A\	Te	4g\	Te	4ee\	te,
4r	4r	8g/L	p	8ee\L	.	4r	.	8g\L	au-	8ee\L	au-
.	.	8g/J	.	8ee\J	.	.	.	8g\J	-di	8ee\J	-di
!LO:LB:g=original	!	!	!	!	!	!	!	!	!	!	!
=47	=47	=47	=47	=47	=47	=47	=47	=47	=47	=47	=47
2r	2r	(8g/L	.	8ee\L	.	2r	.	8g\L	in-	8ee\L	in-
.	.	8e/)	.	8cc#\	.	.	.	8e\	-vo-	8cc#\	-vo-
.	.	(8g/	.	8ee\	.	.	.	8g\	-can-	8ee\	-can-
.	.	8e/J)	.	8cc#\J	.	.	.	8e\J	-tes	8cc#\J	-tes
4D\	4D/	4f#/	f	4dd\	.	4D\	Te	4f#\	te	4dd\	te,
*	*	*	*	*	*	*	*	*	*Xij	*	*Xij
8F#\L	8f#\L	8a/L	.	8dd\L	.	8F#\L	in	8a\L	in	8dd\L	in
8F#\J	8f#\J	8a/J	.	8dd\J	.	8F#\J	a-	8a\J	a-	8dd\J	a-
=48	=48	=48	=48	=48	=48	=48	=48	=48	=48	=48	=48
8G\L	8g\L	8b\L	.	8ee\L	.	8G\L	-go-	8b\L	-go-	8ee\L	-go-
8G\	8g\	8a\	.	8ee\	.	8G\J	-ne	8b\	-ne	8ee\	-ne
8A\	8a\	8cc#\	.	8ff#\	.	8A\L	mor-	8cc#\	mor-	8ff#\	mor-
8A\J	8a\J	8cc#\J	.	8ff#\J	.	8A\J	.	8cc#\J	.	8ff#\J	.
4B\	4b\	4dd\	.	4gg\	.	4B\,	-tis,	4dd\	-tis,	4gg\	-tis
*	*	*	*	*	*	*	*ij	*	*ij	*	*ij
8F#\L	8f#\L	8a\L	.	8dd\L	.	8F#\L	in	8a\L	in	8dd\L	in
8F#\J	8f#\J	8a\J	.	8dd\J	.	8F#\J	a-	8a\J	a-	8dd\J	a-
!	!	!	!	!LO:B:g=original	!	!	!	!	!	!	!
=49	=49	=49	=49	=49	=49	=49	=49	=49	=49	=49	=49
8G\L	8g\L	8b\L	.	8ee\L	.	8G\L	-go-	8b\L	-go-	8ee\L	-go-
8G\	8g\	8b\	.	8ee\	.	8G\J	-ne	8b\	-ne	8ee\	-ne
8A\	8a\	8cc#\	.	8ff#\	.	8A\L	mor-	8cc#\	mor-	8ff#\	mor-
8A\J	8a\J	8cc#\J	.	8ff#\J	.	8A\J	.	8cc#\J	.	8ff#\J	.
4B\	4b\	4dd\	.	4gg\	.	4B\	-tis	4dd\	-tis	4gg\	-tis
8F#\L	8f#\L	8a\L	.	8dd\L	.	8F#\L	in	8a\L	in	8dd\L	in
8F#\J	8f#\J	8a\J	.	8dd\J	.	8F#\J	a-	8a\J	a-	8dd\J	a-
!	!	!LO:LB:g=original	!	!	!	!	!	!	!	!	!
=50	=50	=50	=50	=50	=50	=50	=50	=50	=50	=50	=50
8G\L	8g\L	8b\L	.	8ee\L	.	8G\L	-go-	8b\L	-go-	8ee\L	-go-
8G\	8g\	8b\	.	8ee\	.	8G\	-ne	8b\	-ne	8ee\	-ne
8A\	8a\	8cc#\	.	8ff#\	.	8A\	mor-	8cc#\	mor-	8ff#\	mor-
8A\J	8a\J	8cc#\J	.	8ff#\J	.	8A\J	.	8cc#\J	.	8ff#\J	.
!	!LO:LB:g=original	!	!	!	!	!	!	!	!	!	!
4A\	4a\	8.ee\L	.	8.gg\L	.	4A\	-tis	8.ee\L	-tis	8.gg\L	-tis
*	*	*	*	*	*	*	*Xij	*	*Xij	*	*Xij
.	.	32dd\LL	.	32ff#\LL	.	.	.	32dd\LL	.	32ff#\LL	.
.	.	32ee\JJJ	.	32gg\JJJ	.	.	.	32ee\JJJ	.	32gg\JJJ	.
4c#\	4a\	8ff#\L	.	8aa\L	.	4c#\	Pa-	8ff#\L	.	8aa\L	Pa-
.	.	8ee\J	.	8gg\J	.	.	.	8ee\J	Pa-	8gg\J	.
=51	=51	=51	=51	=51	=51	=51	=51	=51	=51	=51	=51
8d\L	8f#\L	16dd\LL	.	8ff#\L	.	8D\L	-tro-	4dd\	-tro-	8ff#\L	-tro-
.	.	16a\	.	.	.	.	.	.	.	.	.
8F#\	8d\	16a\	.	8aa\	.	8F#\J	.	.	.	8aa\	.
.	.	16a\JJ	.	.	.	.	.	.	.	.	.
8C#\	8c#\	16a\LL	.	8aa\	.	8C#\L	-na	4a\	-na	8aa\	.
.	.	16a\	.	.	.	.	.	.	.	.	.
8AA\J	8A\J	16a\	.	8gg\J	.	8AA\J	.	.	.	8gg\J	-na
.	.	16a\JJ	.	.	.	.	.	.	.	.	.
*	*	*tremolo	*	*	*	*	*	*	*	*	*
8D\L	8d\L	16a\LL	.	8ff#\L	.	8D\L	a-	4a\	.	8ff#\L	a-
.	.	16a\	.	.	.	.	.	.	.	.	.
8F#\	8f#\	16a\	.	8aa\	.	8F#\J	.	.	.	8aa\	-des-
.	.	16a\	.	.	.	.	.	.	.	.	.
8C#\	8c#\	16a\	.	8aa\	.	8C#\L	-des-	4a\	.	8aa\	.
.	.	16a\	.	.	.	.	.	.	.	.	.
8AA\J	8A\J	16a\	.	8gg\J	.	8AA\J	-to	.	.	8gg\J	-to
.	.	16a\JJ	.	.	.	.	.	.	.	.	.
=52	=52	=52	=52	=52	=52	=52	=52	=52	=52	=52	=52
*	*	*	*	*	*	*	*ij	*	*	*	*
!	!	!	!	!	!	!	!	!	!	!LO:TX:t=P:problem:takt zapisany repetycją	!
8D\L	8d\L	16a\LL	.	8ff#\L	.	8D\L	Pa-	4a\	a-	8ff#\Lyy	tro-
.	.	16a\	.	.	.	.	.	.	.	.	.
8F#\	8f#\	16a\	.	8aa\	.	8F#\J	-tro-	.	.	8aa\yy	.
.	.	16a\	.	.	.	.	.	.	.	.	.
8C#\	8c#\	16a\	.	8aa\	.	8C#\L	-na	4a\	-des-	8aa\yy	.
.	.	16a\	.	.	.	.	.	.	.	.	.
8AA\J	8A\J	16a\	.	8gg\J	.	8AA\J	.	.	.	8gg\Jyy	-na
.	.	16a\JJ	.	.	.	.	.	.	.	.	.
8D\L	8d\L	16a\LL	.	8ff#\L	.	8D\L	a-	4a\	.	8ff#\Lyy	a-
.	.	16a\	.	.	.	.	.	.	.	.	.
8F#\	8f#\	16a\	.	8aa\	.	8F#\J	.	.	.	8aa\yy	-des-
.	.	16a\	.	.	.	.	.	.	.	.	.
8C#\	8c#\	16a\	.	8aa\	.	8C#\L	-des-	4a\	-to	8aa\yy	.
.	.	16a\	.	.	.	.	.	.	.	.	.
8AA\J	8A\J	16a\	.	8gg\J	.	8AA\J	-to	.	.	8gg\Jyy	-to
*	*	*	*	*	*	*	*Xij	*	*	*	*
.	.	16a\JJ	.	.	.	.	.	.	.	.	.
!	!	!	!	!	!	!LO:LB:g=original	!	!LO:LB:g=original	!	!LO:LB:g=original	!
=53	=53	=53	=53	=53	=53	=53	=53	=53	=53	=53	=53
*	*	*	*	*tremolo	*	*	*	*	*	*	*
8D\L	8d\L	16dd\LL	.	16ff#\LL	.	4D\	a-	4dd\	a-	4ff#\	a-
.	.	16dd\	.	16ff#\	.	.	.	.	.	.	.
8D\	8d\	16dd\	.	16ff#\	.	.	.	.	.	.	.
.	.	16dd\JJ	.	16ff#\JJ	.	.	.	.	.	.	.
8F#\	8f#\	16ff#\LL	.	16ddd\LL	.	4F#\	-des-	4dd\	-des-	4ff#\	-des-
.	.	16ff#\	.	16ddd\	.	.	.	.	.	.	.
8F#\J	8f#\J	16ff#\	.	16ddd\	.	.	.	.	.	.	.
.	.	16ff#\JJ	.	16ddd\JJ	.	.	.	.	.	.	.
8G\L	8g\L	16gg\LL	.	16bb\LL	.	4G\	-to	4g\	-to	4b\	-to
.	.	16gg\	.	16bb\	.	.	.	.	.	.	.
8G\	8g\	16gg\	.	16bb\	.	.	.	.	.	.	.
.	.	16gg\JJ	.	16bb\JJ	.	.	.	.	.	.	.
8E\	8e\	16ee\LL	.	16gg\LL	.	4E\	Pa-	4ee\	Pa-	4gg\	Pa-
.	.	16ee\	.	16gg\	.	.	.	.	.	.	.
8E\J	8e\J	16ee\	.	16gg\	.	.	.	.	.	.	.
.	.	16ee\JJ	.	16gg\JJ	.	.	.	.	.	.	.
!LO:LB:g=original	!	!	!	!	!	!	!	!	!	!	!
=54	=54	=54	=54	=54	=54	=54	=54	=54	=54	=54	=54
*tremolo	*tremolo	*	*	*	*	*	*	*	*	*	*
8A\L	8a\L	16dd\LL	.	16ff# 16a\LL	.	2A\	-tro-	2dd\	-tro-	2ff#\	-tro-
.	.	16dd\	.	16ff# 16a\	.	.	.	.	.	.	.
8A\	8a\	16dd\	.	16ff# 16a\	.	.	.	.	.	.	.
.	.	16dd\	.	16ff# 16a\	.	.	.	.	.	.	.
8A\	8a\	16dd\	.	16ff# 16a\	.	.	.	.	.	.	.
.	.	16dd\	.	16ff# 16a\	.	.	.	.	.	.	.
8A\J	8a\J	16dd\	.	16ff# 16a\	.	.	.	.	.	.	.
.	.	16dd\JJ	.	16ff# 16a\JJ	.	.	.	.	.	.	.
8AA/L	8A/L	16cc#\LL	.	16ee 16a\LL	.	2AA/	.	2cc#\	.	2ee\	.
.	.	16cc#\	.	16ee 16a\	.	.	.	.	.	.	.
8AA/	8A/	16cc#\	.	16ee 16a\	.	.	.	.	.	.	.
.	.	16cc#\	.	16ee 16a\	.	.	.	.	.	.	.
8AA/	8A/	16cc#\	.	16ee 16a\	.	.	.	.	.	.	.
.	.	16cc#\	.	16ee 16a\	.	.	.	.	.	.	.
8AA/J	8A/J	16cc#\	.	16ee 16a\	.	.	.	.	.	.	.
.	.	16cc#\JJ	.	16ee 16a\JJ	.	.	.	.	.	.	.
*Xtremolo	*Xtremolo	*Xtremolo	*	*Xtremolo	*	*	*	*	*	*	*
=55	=55	=55	=55	=55	=55	=55	=55	=55	=55	=55	=55
8D\L	8d\L	16dd\LL	.	8ff#\L	.	8D\L	-na	4a\	-na	8ff#\L	-na
.	.	16a\	.	.	.	.	.	.	.	.	.
8F#\	8f#\	16a\	.	8aa\	.	8F#\J	.	.	.	8aa\	.
.	.	16a\JJ	.	.	.	.	.	.	.	.	.
*	*	*	*	*	*	*	*ij	*	*ij	*	*ij
8C#\	8c#\	16a\LL	.	8aa\	.	8C#\L	a-	4a\	a-	8aa\	a-
.	.	16a\	.	.	.	.	.	.	.	.	.
8AA\J	8A\J	16a\	.	8gg\J	.	8AA\J	.	.	.	8gg\J	.
.	.	16a\JJ	.	.	.	.	.	.	.	.	.
*	*	*tremolo	*	*	*	*	*	*	*	*	*
8D\L	8d\L	16a\LL	.	8ff#\L	.	8D\L	-de-	4a\	-de-	8ff#\L	-de-
.	.	16a\	.	.	.	.	.	.	.	.	.
8F#\	8f#\	16a\	.	8aa\	.	8F#\J	.	.	.	8aa\	Pa-
.	.	16a\	.	.	.	.	.	.	.	.	.
8C#\	8c#\	16a\	.	8aa\	.	8C#\L	-sto	4a\	-sto	8aa\	-sto
.	.	16a\	.	.	.	.	.	.	.	.	.
8AA\J	8A\J	16a\	.	8gg\J	.	8AA\J	.	.	.	8gg\J	.
.	.	16a\JJ	.	.	.	.	.	.	.	.	.
!	!	!	!	!LO:B:g=original	!	!	!	!	!	!	!
=56	=56	=56	=56	=56	=56	=56	=56	=56	=56	=56	=56
8D\L	8d\L	16a\LL	.	8ff#\L	.	8D\L	Pa-	4a\	Pa-	8ff#\L	Pa-
.	.	16a\	.	.	.	.	.	.	.	.	.
8F#\	8f#\	16a\	.	8aa\	.	8F#\J	.	.	.	8aa\	.
.	.	16a\	.	.	.	.	.	.	.	.	.
8C#\	8c#\	16a\	.	8aa\	.	8C#\L	-tro-	4a\	-tro-	8aa\	-tro
.	.	16a\	.	.	.	.	.	.	.	.	.
8AA\J	8A\J	16a\	.	8gg\J	.	8AA\J	.	.	.	8gg\J	.
.	.	16a\JJ	.	.	.	.	.	.	.	.	.
8D\L	8d\L	16a\LL	.	8ff#\L	.	8D\L	.	4a\	.	8ff#\L	.
.	.	16a\	.	.	.	.	.	.	.	.	.
8F#\	8f#\	16a\	.	8aa\	.	8F#\J	.	.	.	8aa\	.
.	.	16a\	.	.	.	.	.	.	.	.	.
8C#\	8c#\	16a\	.	8aa\	.	8C#\L	-na	4a\	-na	8aa\	-na
*	*	*	*	*	*	*	*Xij	*	*Xij	*	*Xij
.	.	16a\	.	.	.	.	.	.	.	.	.
8AA\J	8A\J	16a\	.	8gg\J	.	8AA\J	.	.	.	8gg\J	.
.	.	16a\JJ	.	.	.	.	.	.	.	.	.
!	!	!LO:LB:g=original	!	!	!	!	!	!	!	!	!
=57	=57	=57	=57	=57	=57	=57	=57	=57	=57	=57	=57
*	*	*	*	*tremolo	*	*	*	*	*	*	*
8D\L	8d\L	16dd\LL	.	16ff#\LL	.	4D\	a-	4dd\	a-	4ff#\	a-
.	.	16dd\	.	16ff#\	.	.	.	.	.	.	.
8D\	8d\	16dd\	.	16ff#\	.	.	.	.	.	.	.
.	.	16dd\JJ	.	16ff#\JJ	.	.	.	.	.	.	.
8F#\	8f#\	16ff#\LL	.	16ddd\LL	.	4F#\	-des-	4dd\	-des-	4ff#\	-des-
.	.	16ff#\	.	16ddd\	.	.	.	.	.	.	.
8F#\J	8f#\J	16ff#\	.	16ddd\	.	.	.	.	.	.	.
.	.	16ff#\JJ	.	16ddd\JJ	.	.	.	.	.	.	.
*tremolo	*tremolo	*	*	*	*	*	*	*	*	*	*
8G\L	8g\L	16gg\LL	.	16bb\LL	.	4G\	-to	4g\	-to	4b\	-to
.	.	16gg\	.	16bb\	.	.	.	.	.	.	.
8G\	8g\	16gg\	.	16bb\	.	.	.	.	.	.	.
.	.	16gg\JJ	.	16bb\JJ	.	.	.	.	.	.	.
8G\	8g\	16ee\LL	.	16gg\LL	.	4E\	Pa-	4ee\	Pa-	4gg\	Pa-
.	.	16ee\	.	16gg\	.	.	.	.	.	.	.
8G\J	8g\J	16ee\	.	16gg\	.	.	.	.	.	.	.
.	.	16ee\JJ	.	16gg\JJ	.	.	.	.	.	.	.
=58	=58	=58	=58	=58	=58	=58	=58	=58	=58	=58	=58
8A\L	8a\L	16dd\LL	.	16ff# 16a\LL	.	2A\	-tro-	2dd\	-tro-	2ff#\	-tro-
.	.	16dd\	.	16ff# 16a\	.	.	.	.	.	.	.
8A\	8a\	16dd\	.	16ff# 16a\	.	.	.	.	.	.	.
.	.	16dd\	.	16ff# 16a\	.	.	.	.	.	.	.
8A\	8a\	16dd\	.	16ff# 16a\	.	.	.	.	.	.	.
.	.	16dd\	.	16ff# 16a\	.	.	.	.	.	.	.
8A\J	8a\J	16dd\	.	16ff# 16a\	.	.	.	.	.	.	.
.	.	16dd\JJ	.	16ff# 16a\JJ	.	.	.	.	.	.	.
8AA/L	8A/L	16cc#\LL	.	16ee 16a\LL	.	2AA/	.	2cc#\	.	2ee\	.
.	.	16cc#\	.	16ee 16a\	.	.	.	.	.	.	.
8AA/	8A/	16cc#\	.	16ee 16a\	.	.	.	.	.	.	.
.	.	16cc#\	.	16ee 16a\	.	.	.	.	.	.	.
8AA/	8A/	16cc#\	.	16ee 16a\	.	.	.	.	.	.	.
.	.	16cc#\	.	16ee 16a\	.	.	.	.	.	.	.
8AA/J	8A/J	16cc#\	.	16ee 16a\	.	.	.	.	.	.	.
.	.	16cc#\JJ	.	16ee 16a\JJ	.	.	.	.	.	.	.
*Xtremolo	*Xtremolo	*Xtremolo	*	*Xtremolo	*	*	*	*	*	*	*
=59	=59	=59	=59	=59	=59	=59	=59	=59	=59	=59	=59
4D\	4d\	4f#/	.	4dd\	.	4D\,	-na,	4a\	-na	4dd\	-na
8F#\L	8f#\L	8ff#\L	.	8ddd\L	.	8F#\L	ut	8f#\L	ut	8a\L	ut
8F#\J	8f#\J	8ff#\J	.	8ddd\J	.	8F#\J	.	8f#\J	.	8a\J	.
8G\L	8g\L	8gg\L	.	8bb\L	.	8G\L	De-	8g\L	De-	8b\L	De-
8G\	8g\J	8gg\	.	8bb\J	.	8G\J	.	8g\J	.	8b\J	.
8A\	8a\L	8ee\	.	8gg\L	.	8A\L	-um	8e\L	-um	8g\L	-um
8A\J	8a\J	8ee\J	.	8gg\J	.	8A\J	.	8e\J	.	8g\J	.
!	!	!	!	!	!	!LO:LB:g=original	!	!	!	!LO:LB:g=original	!
=60	=60	=60	=60	=60	=60	=60	=60	=60	=60	=60	=60
4B\	4b\	4dd\	.	4ff#\	.	4B\	u-	4d/	u-	4f#\	u-
8F#\L	8f#\L	8f#/L	.	8a\L	.	8F#\L	-na(m)	4f#/	-na[m]	8a\L	-na[m]
8F#\J	8f#\J	8f#/J	.	8dd\J	.	8F#\J	.	.	.	8dd\J	.
!LO:TX:t=P:problem:mixed beam	!	!	!	!	!	!	!	!	!	!	!
8G\L	8g\L	8g/L	.	8b\L	.	8G\L	te-	4g/	Te-	8b\L	te-
8G\	8g\	8g/J	.	8ee\J	.	8G\J	.	.	.	8ee\J	.
.	.	.	.	8qqdd/	.	.	.	.	.	8qqdd/	.
8A\	8a\	8e/L	.	8cc#\L	.	8A\L	-cum	4e/	-cu(m)	8cc#\L	-cum
8AA/J	8a\J	8e/J	.	16b\L	.	8A\J	.	.	.	16b\L	.
.	.	.	.	16a\JJ	.	.	.	.	.	16a\JJ	.
!LO:LB:g=original	!	!	!	!	!	!	!	!	!	!	!
=61	=61	=61	=61	=61	=61	=61	=61	=61	=61	=61	=61
4D\	4d\	4f#/	.	4dd\	.	4D\	in	4f#/	in	4dd\	in
8F#\L	8f#\L	8ff#\L	.	8ddd\L	.	8F#\L	coe-	8f#/L	coe-	8a\L	coe-
8F#\J	8f#\J	8ff#\J	.	8ddd\J	.	8F#\J	.	8f#/J	.	8a\J	.
8G\L	8g\L	8gg\L	.	8bb\L	.	8G\L	-lis	8g/L	-lis	8b\L	-lis
8G\	8g\	8gg\J	.	8bb\J	.	8G\J	.	8g/	.	8b\J	.
8A\	8a\	8ee\L	.	8gg\L	.	8A\L	ae-	8e/	ae-	8g\L	ae-
8A\J	8a\J	8ee\J	.	8gg\J	.	8A\J	.	8e/J	.	8g\J	.
!	!	!	!	!	!	!	!	!LO:LB:g=original	!	!	!
=62	=62	=62	=62	=62	=62	=62	=62	=62	=62	=62	=62
4B\	4b\	4dd\	.	4ff#\	.	4B\	-ter-	4f#/	-ter-	4f#\	-ter-
8F#\L	8f#\L	8f#/L	.	8a\L	.	8F#\L	-ne	4f#/	-ne	8a\L	-ne
8F#\J	8f#\J	8f#/J	.	8dd\J	.	8F#\J	.	.	.	8dd\J	.
!LO:TX:t=P:problem:mixed beam	!	!	!	!	!	!	!	!	!	!	!
8G\L	8g\L	8g/L	.	8b\L	.	8G\L	va-	4g/	va-	8b\L	va-
8G\	8g\	8g/J	.	8ee\J	.	8G\J	-le-	.	.	8ee\J	.
!	!	!	!	!	!	!LO:TX:t=P:problem:mixed beam	!	!	!	!	!
.	.	.	.	8qqdd/	.	.	.	.	.	8qqdd/	.
8A\	8a\	8e/L	.	8cc#\L	.	8A\L	-a-	4e/	-lea-	8cc#\L	-le-
8AA/J	8a\J	8e/J	.	16b\L	.	8AA/J	.	.	.	16b\L	-a-
.	.	.	.	16a\JJ	.	.	.	.	.	16a\JJ	.
!	!	!	!	!LO:B:g=original	!	!	!	!	!	!	!
=63	=63	=63	=63	=63	=63	=63	=63	=63	=63	=63	=63
4D\	4d\	4f#/	.	4dd\	.	4D\	-mus	4f#/	-mus	4dd\	-mus
8A\L	8a\L	8eeL 8a\	.	8ccc#L 8a\	.	8A\L	lau-	8cc#\L	Lau-	8ee\L	Lau-
8A\J	8a\J	8eeJ 8a\	.	8ccc#J 8a\	.	8A\J	.	8cc#\J	.	8ee\J	.
4d\	4dd\	4ff# 4a 4d\	.	4ddd 4a\	.	4d\	.	4dd\	.	4ff#\	.
8A\L	8a\L	8eeL 8a\	.	8ccc#L 8a\	.	8A\L	-da-	8cc#\L	-da-	8ee\L	da-
8A\J	8a\J	8eeJ 8a\	.	8ccc#J 8a\	.	8A\J	.	8cc#\J	.	8ee\J	.
!	!	!LO:LB:g=original	!	!	!	!	!	!	!	!	!
=64	=64	=64	=64	=64	=64	=64	=64	=64	=64	=64	=64
4D\	4d\	4ff# 4a 4d\	.	4ddd\	.	4D\	-re.	4dd\	-re	4dd\	-re
4r	4r	16dd\LL	.	16ff#\LL	.	4r	.	4r	.	4r	.
.	.	16cc#\	.	16ee\	.	.	.	.	.	.	.
.	.	16dd\	.	16ff#\	.	.	.	.	.	.	.
.	.	16ee\JJ	.	16gg\JJ	.	.	.	.	.	.	.
4r	4r	8ff#\L	.	8aa\L	.	2r	.	2r	.	2r	.
.	.	8dd\	.	8ff#\	.	.	.	.	.	.	.
4AA/	4A/	8cc#\	.	8ee\	.	.	.	.	.	.	.
.	.	8ee\J	.	8gg\J	.	.	.	.	.	.	.
=65	=65	=65	=65	=65	=65	=65	=65	=65	=65	=65	=65
!	!	!	!	!	!	!	!	!LO:TX:a:t=5	!	!	!
4D\	4d\	4dd\	.	4ff#\	.	00r	.	00r	.	00r	.
4r	4r	16dd\LL	.	16ff#\LL	.	.	.	.	.	.	.
.	.	16cc#\	.	16ee\	.	.	.	.	.	.	.
.	.	16dd\	.	16ff#\	.	.	.	.	.	.	.
.	.	16ee\JJ	.	16gg\JJ	.	.	.	.	.	.	.
4r	4r	8ff#\L	.	8aa\L	.	.	.	.	.	.	.
.	.	8dd\J	.	8ff#\J	.	.	.	.	.	.	.
4AA/	4a\	16ff#\LL	.	16aa\LL	.	.	.	.	.	.	.
.	.	16ee\	.	16gg\	.	.	.	.	.	.	.
.	.	16dd\	.	16ff#\	.	.	.	.	.	.	.
.	.	16cc#\JJ	.	16ee\JJ	.	.	.	.	.	.	.
!	!LO:LB:g=original	!	!	!	!	!	!	!	!	!	!
=66	=66	=66	=66	=66	=66	=66	=66	=66	=66	=66	=66
4D\	4d\	4dd\	.	4dd\	.	.	.	.	.	.	.
4r	4r	16dd\LL	.	16ff#\LL	.	.	.	.	.	.	.
.	.	16cc#\	.	16ee\	.	.	.	.	.	.	.
.	.	16dd\	.	16ff#\	.	.	.	.	.	.	.
.	.	16ee\JJ	.	16gg\JJ	.	.	.	.	.	.	.
4r	4r	8ff#\L	.	8aa\L	.	.	.	.	.	.	.
.	.	8dd\	.	8ff#\	.	.	.	.	.	.	.
!LO:TX:a:t=a	!	!	!	!	!	!	!	!	!	!	!
4A\	4a\	8cc#\	.	8ee\	.	.	.	.	.	.	.
.	.	8ee\J	.	8gg\J	.	.	.	.	.	.	.
=67	=67	=67	=67	=67	=67	=67	=67	=67	=67	=67	=67
4D\	4dd\	4dd\	.	4ff#\	.	.	.	.	.	.	.
4r	4r	16dd\LL	.	16ff#\LL	.	.	.	.	.	.	.
.	.	16cc#\	.	16ee\	.	.	.	.	.	.	.
.	.	16dd\	.	16ff#\	.	.	.	.	.	.	.
.	.	16ee\JJ	.	16gg\JJ	.	.	.	.	.	.	.
4r	4r	8ff#\L	.	8aa\L	.	.	.	.	.	.	.
.	.	8dd\J	.	8ff#\J	.	.	.	.	.	.	.
4AA/	4a\	16ff#\LL	.	16aa\LL	.	.	.	.	.	.	.
.	.	16ee\	.	16gg\	.	.	.	.	.	.	.
.	.	16dd\	.	16ff#\	.	.	.	.	.	.	.
.	.	16cc#\JJ	.	16ee\JJ	.	.	.	.	.	.	.
!	!	!	!	!LO:B:g=original	!	!	!	!	!	!	!
=68	=68	=68	=68	=68	=68	=68	=68	=68	=68	=68	=68
*	*^	*	*	*	*	*	*	*	*	*	*
.	.	.	.	.	8qqdd/	.	.	.	.	.	.	.
*	*tremolo	*tremolo	*	*	*	*	*	*	*	*	*	*
4D\	8a/L	8f#\L	8ff#\L	.	8ddd\L	.	.	.	.	.	.	.
.	8a/	8f#\	16ff#\L	.	16aa\L	.	.	.	.	.	.	.
.	.	.	16ff#\JJ	.	16aa\JJ	.	.	.	.	.	.	.
4D\	8a/	8f#\	8ff#\L	.	8aa\L	.	.	.	.	.	.	.
.	8a/J	8f#\J	16dd\L	.	16ff#\L	.	.	.	.	.	.	.
.	.	.	16dd\JJ	.	16ff#\JJ	.	.	.	.	.	.	.
4D\	8a/L	8f#\L	8dd\L	.	8ff#\L	.	.	.	.	.	.	.
.	8a/	8f#\	16f#\L	.	16dd\L	.	.	.	.	.	.	.
.	.	.	16f#\JJ	.	16dd\JJ	.	.	.	.	.	.	.
4D\	8a/	8f#\	8f#\L	.	8dd\L	.	.	.	.	.	.	.
.	8a/J	8f#\J	16f#\L	.	16a\L	.	.	.	.	.	.	.
.	.	.	16f#\JJ	.	16a\JJ	.	.	.	.	.	.	.
!LO:LB:g=original	!	!	!	!	!	!	!	!	!	!	!	!
=69	=69	=69	=69	=69	=69	=69	=69	=69	=69	=69	=69	=69
*tremolo	*	*tremolo	*	*	*	*	*	*	*	*	*	*
!	!	!	!	!	!	!	!LO:TX:b:t=ilfine	!	!	!	!	!
8D\L	8a/L	8f#\L	8d/L	.	8f#/L	.	1r	.	1r	.	1r	.
8D\	8a/	8f#\	8ff# 8a 8d/	.	8ff# 8a 8d/	.	.	.	.	.	.	.
8D\	8a/	8f#\	8ff# 8a 8d/	.	8ff# 8a 8d/	.	.	.	.	.	.	.
8D\J	8a/J	8f#\J	8ff#J 8a 8d/	.	8ff#J 8a 8d/	.	.	.	.	.	.	.
*Xtremolo	*Xtremolo	*Xtremolo	*	*	*	*	*	*	*	*	*	*
4D\	4a/	4f#\	4ff# 4a 4d/	.	4ff# 4a 4d/	.	.	.	.	.	.	.
!LO:TX:b:t=ilfine	!	!	!LO:TX:b:t=ilfine	!	!LO:TX:b:t=ilfine	!	!	!	!	!	!	!
4r	4r	4ryy	4r;	.	4r;	.	.	.	.	.	.	.
*	*v	*v	*	*	*	*	*	*	*	*	*	*
==	==;;	==	==	==	==	==	==	==	==	==	==
*-	*-	*-	*-	*-	*-	*-	*-	*-	*-	*-	*-
!!!system-decoration: [(g1)][(g2)]s7
!!!RDF**kern: | = vertical stroke
!!!RDF**dynam: p = "p:"
!!!RDF**kern: f = "f:"
!!!AIN: 1 bass 1 cemba 2 soprn 1 viola 2 violn
!!!ENC: Marcin Jachim
!!!END: 2020-10-06
!!!ENC: Marta Lawrence
!!!END: 2022-01-27
